X:22301
T:Adam the Poacher
R:Hornpipe
B:Tuneworks Tunebook 2 (https://www.tuneworks.co.uk/)
G:Tuneworks
Z:Jon Warbrick <jon.warbrick@googlemail.com>
M:4/4
L:1/8
K:C
|: "Am" Aceg e2 cB | "G" AcBc"Am" AcBc | "Am" Aceg e2 cB |1" G" AcBc"Am" A2 E2 :|2 "G" AcBc"Am" A4 ||
|: [K:A] "D" dfaf dfaf | defg a2 gf | "A" e2 ef e2 cB |1 AcBc A2 E2 :|2 AcBc A4 |]
